X: 08026
T: DANCY'S REEL
C: Bob McQuillen 16 Nov 90
B: Bob's Note Book 8 #26
%R: reel
Z: 2021 John Chambers <jc:trillian.mit.edu>
M: C
L: 1/8
K: A
AF \
| E2Ac BAFE | efec BcAc | e2ce fecB | AFAc BAFA |\
| EFAc BAFE | efec BcAc | e2af ecfa | ecBc A2 :|
|: AB \
| c2cA BAcB | ABcA BAFE | A2AB cecB | AcBA F2EF |\
| Acea fecB | Acea f2ef | aefa ecAB | c2A2 A2 :|
%%begintext align
%% Dancy Bluhm
%% lives over in Fitzwilliam with her nice fiddle-playing
%% husband Carey and equally nice son
%% Adam, and all I can tell you is that I'm really
%% glad this tune has her name on it! I bet you
%% get to dance to this one some day, Dancy!
%%endtext

%%sep 1 1 500

%%sep 1 1 500

